icons/square/48/drgeo.svg

<svg width="48" height="48" version="1.1" viewBox="0 0 48 48.000001" xmlns="http://www.w3.org/2000/svg">
 <defs>
  <linearGradient id="linearGradient4501" x1="-47" x2="-1" y1="2.8779e-15" y2="6.1232e-17" gradientUnits="userSpaceOnUse">
   <stop style="stop-color:#e4e4e4" offset="0"/>
   <stop style="stop-color:#eee" offset="1"/>
  </linearGradient>
 </defs>
 <g transform="translate(0 3.949e-5)">
  <path d="m1 43v0.25c0 2.216 1.784 4 4 4h38c2.216 0 4-1.784 4-4v-0.25c0 2.216-1.784 4-4 4h-38c-2.216 0-4-1.784-4-4zm0 0.5v0.5c0 2.216 1.784 4 4 4h38c2.216 0 4-1.784 4-4v-0.5c0 2.216-1.784 4-4 4h-38c-2.216 0-4-1.784-4-4z" style="opacity:.02"/>
  <path d="m1 43.25v0.25c0 2.216 1.784 4 4 4h38c2.216 0 4-1.784 4-4v-0.25c0 2.216-1.784 4-4 4h-38c-2.216 0-4-1.784-4-4z" style="opacity:.05"/>
  <path d="m1 43v0.25c0 2.216 1.784 4 4 4h38c2.216 0 4-1.784 4-4v-0.25c0 2.216-1.784 4-4 4h-38c-2.216 0-4-1.784-4-4z" style="opacity:.1"/>
 </g>
 <rect transform="rotate(-90)" x="-47" y="1" width="46" height="46" rx="4" style="fill:url(#linearGradient4501)"/>
 <path d="m8.002 1v5.5l-0.00195 0.00195v0.5h-7v1.002l7-0.00195v7h-7v1h6.998v7h-6.998v1h6.998v7h-6.998v1h6.998v7l-6.998-2e-3v1.002h7v6.998h1l-0.00195-5.5645 0.00391 0.0039v-1.4375h6.9961v6.998h1.0039v-6.9961h6.9961v6.9961h1v-6.998h7v6.998h1v-6.9961l7-0.0039v0.5l2e-3 -2e-3v6.502h1v-7h6v-1h-6l-2e-3 -6.9961h6.002v-1.0039h-6.002v-6.9961h6.002v-1.0039h-6.002v-6.9961h6.002v-1.0039h-6l2e-3 -6.9961h5.998v-1h-5.998v-6.0039h-1v5.5098l-0.0059-0.00586v0.5l-6.9961-0.00391v-6h-1.0039v6.002h-6.9961v-6.002h-1v6h-7v-6h-1v6.002h-7v-1.4395l0.00195-4.5625h-1zm1 7.0039h6.998v6.9961h-6.998zm8 0h6.998v6.9961h-6.998zm8 0h6.998v6.9961h-6.998zm8 0h6.998v6.9961h-6.998zm-24 8h6.998v6.9961h-6.998zm8 0h6.998v6.9961h-6.998zm8 0h6.998v6.9961h-6.998zm8 0h6.998v6.9961h-6.998zm-24 8h6.998v6.9961h-6.998zm8 0h6.998v6.9961h-6.998zm8 0h6.998v6.9961h-6.998zm8 0h6.998v6.9961h-6.998zm-24 8h6.998v6.9961h-6.998zm8 0h6.998v6.9961h-6.998zm8 0h6.998v6.9961h-6.998zm8 0h6.998v6.9961h-6.998z" style="fill:#a0dad0"/>
 <g transform="translate(0 3.949e-5)">
  <g transform="translate(0 -1004.4)">
   <path d="m1 1043.4v4c0 2.216 1.784 4 4 4h38c2.216 0 4-1.784 4-4v-4c0 2.216-1.784 4-4 4h-38c-2.216 0-4-1.784-4-4z" style="opacity:.1"/>
  </g>
 </g>
 <path d="M 24,9 A 15,15 0 0 0 9,24 15,15 0 0 0 24,39 15,15 0 0 0 39,24 15,15 0 0 0 24,9 m -0.88,2.03 -9.99,20.08 A 13,13 0 0 1 11,24 13,13 0 0 1 23.12,11.03 m 1.773,0.014 A 13,13 0 0 1 37,24 13,13 0 0 1 34.871,31.11 L 24.891,11.04 M 24,13.744 32.586,31 H 15.414 L 24,13.744 M 14.625,33 H 33.36 A 13,13 0 0 1 24,37 13,13 0 0 1 14.625,33" style="color-rendering:auto;color:#000000;fill-opacity:.098;fill-rule:evenodd;image-rendering:auto;isolation:auto;mix-blend-mode:normal;shape-rendering:auto;solid-color:#000000;white-space:normal" isolation="auto" mix-blend-mode="normal"/>
 <path d="m24 8.256-11.814 23.744h23.625l-11.814-23.744m0 4.488l8.586 17.256h-17.17l8.586-17.256" style="color-rendering:auto;color:#000000;fill-rule:evenodd;fill:#3083a6;image-rendering:auto;isolation:auto;mix-blend-mode:normal;shape-rendering:auto;solid-color:#000000;white-space:normal" isolation="auto" mix-blend-mode="normal"/>
 <path d="M 24,8 A 15,15 0 0 0 9,23 15,15 0 0 0 24,38 15,15 0 0 0 39,23 15,15 0 0 0 24,8 m 0,2 A 13,13 0 0 1 37,23 13,13 0 0 1 24,36 13,13 0 0 1 11,23 13,13 0 0 1 24,10" style="fill-rule:evenodd;fill:#da6c62"/>
</svg>

<svg width="48" height="48" viewBox="0 0 48 48.000001" xmlns="http://www.w3.org/2000/svg">
  <defs>
    <linearGradient id="a" x1="-47" x2="-1" gradientUnits="userSpaceOnUse">
      <stop offset="0" stop-color="#e4e4e4"/>
      <stop offset="1" stop-color="#eee"/>
    </linearGradient>
  </defs>
  <path d="M1 43v.25c0 2.216 1.784 4 4 4h38c2.216 0 4-1.784 4-4V43c0 2.216-1.784 4-4 4H5c-2.216 0-4-1.784-4-4zm0 .5v.5c0 2.216 1.784 4 4 4h38c2.216 0 4-1.784 4-4v-.5c0 2.216-1.784 4-4 4H5c-2.216 0-4-1.784-4-4z" opacity=".02"/>
  <path d="M1 43.25v.25c0 2.216 1.784 4 4 4h38c2.216 0 4-1.784 4-4v-.25c0 2.216-1.784 4-4 4H5c-2.216 0-4-1.784-4-4z" opacity=".05"/>
  <path d="M1 43v.25c0 2.216 1.784 4 4 4h38c2.216 0 4-1.784 4-4V43c0 2.216-1.784 4-4 4H5c-2.216 0-4-1.784-4-4z" opacity=".1"/>
  <rect transform="rotate(-90)" x="-47" y="1" width="46" height="46" rx="4" fill="url(#a)"/>
  <path d="M8.002 1v5.5L8 6.502v.5H1v1.002l7-.002v7H1v1h6.998v7H1v1h6.998v7H1v1h6.998v7L1 39v1.002h7V47h1l-.002-5.565.004.004v-1.437h6.996V47h1.004v-6.996h6.996V47h1v-6.998h7V47h1v-6.996l7-.004v.5l.002-.002V47h1v-7h6v-1h-6l-.002-6.996H47V31h-6.002v-6.996H47V23h-6.002v-6.996H47V15h-6l.002-6.996H47v-1h-5.998V1h-1v5.51l-.006-.006v.5L33 7V1h-1.004v6.002H25V1h-1v6h-7V1h-1v6.002H9v-1.44L9.002 1h-1zm1 7.004H16V15H9.002zm8 0H24V15h-6.998zm8 0H32V15h-6.998zm8 0H40V15h-6.998zm-24 8H16V23H9.002zm8 0H24V23h-6.998zm8 0H32V23h-6.998zm8 0H40V23h-6.998zm-24 8H16V31H9.002zm8 0H24V31h-6.998zm8 0H32V31h-6.998zm8 0H40V31h-6.998zm-24 8H16V39H9.002zm8 0H24V39h-6.998zm8 0H32V39h-6.998zm8 0H40V39h-6.998z" fill="#a0dad0"/>
  <path d="M1 39v4c0 2.216 1.784 4 4 4h38c2.216 0 4-1.784 4-4v-4c0 2.216-1.784 4-4 4H5c-2.216 0-4-1.784-4-4z" opacity=".1"/>
  <path d="M24 9A15 15 0 0 0 9 24a15 15 0 0 0 15 15 15 15 0 0 0 15-15A15 15 0 0 0 24 9m-.88 2.03l-9.99 20.08A13 13 0 0 1 11 24a13 13 0 0 1 12.12-12.97m1.773.014A13 13 0 0 1 37 24a13 13 0 0 1-2.129 7.11l-9.98-20.07M24 13.744L32.586 31H15.414L24 13.744M14.625 33H33.36A13 13 0 0 1 24 37a13 13 0 0 1-9.375-4" style="isolation:auto;mix-blend-mode:normal" color="#000" fill-opacity=".098" fill-rule="evenodd" white-space="normal"/>
  <path d="M24 8.256L12.186 32h23.625L23.997 8.256m0 4.488L32.583 30h-17.17l8.586-17.256" style="isolation:auto;mix-blend-mode:normal" color="#000" fill-rule="evenodd" fill="#3083a6" white-space="normal"/>
  <path d="M24 8A15 15 0 0 0 9 23a15 15 0 0 0 15 15 15 15 0 0 0 15-15A15 15 0 0 0 24 8m0 2a13 13 0 0 1 13 13 13 13 0 0 1-13 13 13 13 0 0 1-13-13 13 13 0 0 1 13-13" fill-rule="evenodd" fill="#da6c62"/>
</svg>
